X: 14
T: The Dutchess [sic] of Brunswick's Waltz
T: the Duchess of Brunswick's Waltz
M: 3/8
L: 1/8
R: Waltz
B: Goulding & Co. - Twenty Four Country Dances for the Year 1808 (London) p.7 #2
N: The 2nd strain has initial repeat but no final repeat; it's not obvious which is correct.
F: http://petrucci.mus.auth.gr/imglnks/usimg/7/7e/IMSLP351864-PMLP71783-goulding_24_dances_1808.pdf
Z: Transcribed and edited by Flynn Titford-Mock
Z: ABC's: AK/Fiddler's Companion
Z: Dance added 2015 by John Chambers  <jc:trillian.mit.edu>
K: G
% - - - - - - - - - - - - - - - - - - - - - - - - - - - - -
G/B/ |\
ddd | d>gd/B/ | d/c/B/c/e/c/ | A2 d/c/ |\
BGG | A>Bc/A/ | G/F/E/D/E/F/ | G2 ::\
d/B/ |\
[AF][AF] d/B/ | [AF][AF] d/B/ |!
[AF][AF] d/B/ | A2 G/B/ |\
ddd | d>gd/B/ | d/c/B/c/e/c/ | A2 d/c/ |\
BGG | A>Bc/A/ | G/F/E/D/E/F/ | G2 |]
% - - - - - - - - - - Dance description - - - - - - - - - -
%%begintext align
%% Set & half Right & Left _ same back again,
%% down the middle, & Allemance.
%%endtext
